X: 305719
M: 6/8
L: 1/8
K: D
dAd |\
f2f efe | d3- dAd | f2f efe | d3 B2c |\
aaa |\
fff ggg | e3 e2e | fef gag | e2e eee |\
fef gag | ede fgf | ede fgf | "^D.C."e3 |]
f3 c3 | d3 f2f | f3 "^D.C."c3 |]


